packages/pepicons/svg/print/film-frame.svg

<svg style="" width="20" height="20" viewBox="0 0 20 20" fill="none" xmlns="http://www.w3.org/2000/svg">
<rect opacity="0.8" x="2" y="5.5" width="18" height="14" rx="2" fill="currentColor"/>
<path fill-rule="evenodd" clip-rule="evenodd" d="M3 3H17C18.1046 3 19 3.89543 19 5V15C19 16.1046 18.1046 17 17 17H3C1.89543 17 1 16.1046 1 15V5C1 3.89543 1.89543 3 3 3ZM16.5 4.5H15.5C15.2239 4.5 15 4.72386 15 5V6C15 6.27614 15.2239 6.5 15.5 6.5H16.5C16.7761 6.5 17 6.27614 17 6V5C17 4.72386 16.7761 4.5 16.5 4.5ZM16.5 7.5H15.5C15.2239 7.5 15 7.72386 15 8V9C15 9.27614 15.2239 9.5 15.5 9.5H16.5C16.7761 9.5 17 9.27614 17 9V8C17 7.72386 16.7761 7.5 16.5 7.5ZM16.5 10.5H15.5C15.2239 10.5 15 10.7239 15 11V12C15 12.2761 15.2239 12.5 15.5 12.5H16.5C16.7761 12.5 17 12.2761 17 12V11C17 10.7239 16.7761 10.5 16.5 10.5ZM16.5 13.5H15.5C15.2239 13.5 15 13.7239 15 14V15C15 15.2761 15.2239 15.5 15.5 15.5H16.5C16.7761 15.5 17 15.2761 17 15V14C17 13.7239 16.7761 13.5 16.5 13.5ZM4.5 4.5H3.5C3.22386 4.5 3 4.72386 3 5V6C3 6.27614 3.22386 6.5 3.5 6.5H4.5C4.77614 6.5 5 6.27614 5 6V5C5 4.72386 4.77614 4.5 4.5 4.5ZM4.5 7.5H3.5C3.22386 7.5 3 7.72386 3 8V9C3 9.27614 3.22386 9.5 3.5 9.5H4.5C4.77614 9.5 5 9.27614 5 9V8C5 7.72386 4.77614 7.5 4.5 7.5ZM4.5 10.5H3.5C3.22386 10.5 3 10.7239 3 11V12C3 12.2761 3.22386 12.5 3.5 12.5H4.5C4.77614 12.5 5 12.2761 5 12V11C5 10.7239 4.77614 10.5 4.5 10.5ZM4.5 13.5H3.5C3.22386 13.5 3 13.7239 3 14V15C3 15.2761 3.22386 15.5 3.5 15.5H4.5C4.77614 15.5 5 15.2761 5 15V14C5 13.7239 4.77614 13.5 4.5 13.5ZM6.5 4V16H13.5V4H6.5Z" fill="black"/>
</svg>

<svg xmlns="http://www.w3.org/2000/svg" style="" width="20" height="20" viewBox="0 0 20 20"><g fill="none" fill-rule="evenodd"><rect width="18" height="14" x="2" y="5.5" fill="currentColor" opacity=".8" rx="2"/><path fill="#000" d="M3 3h14a2 2 0 0 1 2 2v10a2 2 0 0 1-2 2H3a2 2 0 0 1-2-2V5a2 2 0 0 1 2-2zm13.5 1.5h-1a.5.5 0 0 0-.5.5v1a.5.5 0 0 0 .5.5h1A.5.5 0 0 0 17 6V5a.5.5 0 0 0-.5-.5zm0 3h-1a.5.5 0 0 0-.5.5v1a.5.5 0 0 0 .5.5h1A.5.5 0 0 0 17 9V8a.5.5 0 0 0-.5-.5zm0 3h-1a.5.5 0 0 0-.5.5v1a.5.5 0 0 0 .5.5h1a.5.5 0 0 0 .5-.5v-1a.5.5 0 0 0-.5-.5zm0 3h-1a.5.5 0 0 0-.5.5v1a.5.5 0 0 0 .5.5h1a.5.5 0 0 0 .5-.5v-1a.5.5 0 0 0-.5-.5zm-12-9h-1A.5.5 0 0 0 3 5v1a.5.5 0 0 0 .5.5h1A.5.5 0 0 0 5 6V5a.5.5 0 0 0-.5-.5zm0 3h-1A.5.5 0 0 0 3 8v1a.5.5 0 0 0 .5.5h1A.5.5 0 0 0 5 9V8a.5.5 0 0 0-.5-.5zm0 3h-1a.5.5 0 0 0-.5.5v1a.5.5 0 0 0 .5.5h1A.5.5 0 0 0 5 12v-1a.5.5 0 0 0-.5-.5zm0 3h-1a.5.5 0 0 0-.5.5v1a.5.5 0 0 0 .5.5h1A.5.5 0 0 0 5 15v-1a.5.5 0 0 0-.5-.5zm2-9.5v12h7V4h-7z"/></g></svg>
